X: 1731
T: Seni Tenhâda Bir Bulsam
C: İsmet Ağa
O: Turkey
F: http://compmusic.upf.edu/node/140
N: nihavent--sarki--aksak--seni_tenhada--ismet_aga
N: makam= nihavent
N: form= sarki
N: usul= aksak = 9/8
M: 9/8
L: 1/16
K: C _B _e  
Q: 1/4=144
%%MIDI tuningsystem comma53
d2e2 d2^c2 B2A2 G4 A2 | B3AG2 ^F2G8-G2  | \
w:  Se *  *  *  ni   |  ten *  *  *  hâ  | 
d2e2 d2^c2 d2e2 ^f2g2 a2 | 
w:  da  *  *  *  bir   | 
^f2 e2e2 d2d2 ^c2d4z2  | d2e2 d2^c2 B2A2 G4 A2 | \
w:  bul *  *  *  sam    |  Se *  *  *  ni   | 
B3AG2 ^F2G8-G2  | 
w:  ten *  *  *  hâ  | 
d2e2 d2^c2 d2e2 ^f2g2 a2 | ^f2 e2e2 d2d2 ^c2d4z2  | \
w:  da  *  *  *  bir   |  bul *  *  *  sam    | 
d2e2 d2c2 c2d2 c4 B2 | 
w:  Bu  *  *  *  ça  | 
c3ed2 c2B2 A2G6  | A2B2 A2B2 d2c2 B2A2 G2 | \
w:  ğın  *  *  *  geç  |  me *  *  *  den   | 
B2 A2G2 ^F2G2 A2B2 c2d2  | 
w:  sar *  *  *  sam    | 
d2e2 d2c2 c2d2 c4 B2 | c3ed2 c2B2 A2G6  | \
w:  Bu  *  *  *  ça  |  ğın  *  *  *  geç  | 
A2B2 A2B2 d2c2 B2A2 G2 | 
w:  me *  *  *  den   | 
B2 A2G2 ^F2G8z2  | g8 ^f2e2 d6 | e4^f4g2 f2g6  | \
w:  sar *  *  *  sam    |  Ke mâl_  |  i  *  zevk   | 
z2g2 ^f2g2 a8 b2 | 
w:  i *  *  le   | 
a3g^f2 g2f2 e2d6  | ^f3e d2f2 e2f2 e4 d2 | \
w:  kan *  *  *  sam   |  ah   | 
a2 g2g2 ^f2f2 e2e4ed  | 
w:  ah  *  *  *  *  *  me le  | 
d6g2 ^f2a2 g6 | g8^f2 e2d6  | e4 ^f4 g2f2 g6 | \
w:  ğim   SAZ  |  Ke mâl_  |  i  *  zevk   | 
z2 g2^f2 g2a8b2  | a3g ^f2g2 f2e2 d6 | 
w:  i *  *  le   |  kan *  *  *  sam   | 
^f3ed2 f2e2 f2e4d2  | a2g2 g2^f2 f2e2 e4 ed | \
w:  ah   |  ah  *  *  *  *  *  me le  | 
d6 c2B2 c2d6  | 
w:  ğim   SAZ  | 
d2e2 d2c2 c2d2 c4 B2 | c3ed2 c2B2 A2G6  | \
w:  Bu  *  *  *  ça  |  ğın  *  *  *  geç  | 
A2B2 A2B2 d2c2 B2A2 G2 | 
w:  me *  *  *  den   | 
B2 A2G2 ^F2G2 A2B2 c2d2  | d2e2 d2c2 c2d2 c4 B2 | \
w:  sar *  *  *  sam    |  Bu  *  *  *  ça  | 
c3ed2 c2B2 A2G6  | 
w:  ğın  *  *  *  geç  | 
A2B2 A2B2 d2c2 B2A2 G2 | B2 A2G2 ^F2G8z2  | |


